packages/icons/src/SVG/app-switcher.svg

<svg width="12" height="12" viewBox="0 0 12 12" >
<path d="M3 0H0V3H3V0Z" />
<path d="M7.5 0H4.5V3H7.5V0Z" />
<path d="M9 3V0H12V3H9Z" />
<path d="M9 4.5V7.5H12V4.5H9Z" />
<path d="M9 12V9H12V12H9Z" />
<path d="M4.5 9V12H7.5V9H4.5Z" />
<path d="M0 9H3V12H0V9Z" />
<path d="M3 4.5H0V7.5H3V4.5Z" />
<path d="M4.5 4.5H7.5V7.5H4.5V4.5Z" />
</svg>

<!-- Generated by IcoMoon.io -->
<svg version="1.1" xmlns="http://www.w3.org/2000/svg" width="12" height="12" viewBox="0 0 12 12">
<title>app-switcher</title>
<path d="M3 0h-3v3h3v-3z"></path>
<path d="M7.5 0h-3v3h3v-3z"></path>
<path d="M9 3v-3h3v3h-3z"></path>
<path d="M9 4.5v3h3v-3h-3z"></path>
<path d="M9 12v-3h3v3h-3z"></path>
<path d="M4.5 9v3h3v-3h-3z"></path>
<path d="M0 9h3v3h-3v-3z"></path>
<path d="M3 4.5h-3v3h3v-3z"></path>
<path d="M4.5 4.5h3v3h-3v-3z"></path>
</svg>
